frontend/public/assets/material-icons/swagger.svg

<?xml version="1.0" encoding="UTF-8" standalone="no"?>
<svg
   width="256px"
   height="256px"
   viewBox="0 0 256 256"
   version="1.1"
   preserveAspectRatio="xMidYMid"
   id="svg10"
   sodipodi:docname="swagger.svg"
   inkscape:version="1.2.1 (9c6d41e410, 2022-07-14)"
   xmlns:inkscape="http://www.inkscape.org/namespaces/inkscape"
   xmlns:sodipodi="http://sodipodi.sourceforge.net/DTD/sodipodi-0.dtd"
   xmlns="http://www.w3.org/2000/svg"
   xmlns:svg="http://www.w3.org/2000/svg">
  <defs
     id="defs14" />
  <sodipodi:namedview
     id="namedview12"
     pagecolor="#ffffff"
     bordercolor="#000000"
     borderopacity="0.25"
     inkscape:showpageshadow="2"
     inkscape:pageopacity="0.0"
     inkscape:pagecheckerboard="true"
     inkscape:deskcolor="#d1d1d1"
     showgrid="false"
     inkscape:zoom="3.2382812"
     inkscape:cx="124.44873"
     inkscape:cy="136.18335"
     inkscape:window-width="1920"
     inkscape:window-height="1009"
     inkscape:window-x="-8"
     inkscape:window-y="-8"
     inkscape:window-maximized="1"
     inkscape:current-layer="g8">
    <inkscape:grid
       type="xygrid"
       id="grid1680" />
  </sodipodi:namedview>
  <g
     id="g8">
    <path
       id="path4"
       inkscape:label="path4"
       d="M 128.96289 17.001953 C 127.03453 16.989116 125.11698 17.025942 123.21289 17.111328 C 121.3088 17.196714 119.41854 17.33064 117.54102 17.511719 C 113.78597 17.873875 110.08616 18.42455 106.45117 19.154297 C 97.363698 20.978663 88.680959 23.921838 80.544922 27.822266 C 75.6633 30.162522 70.977868 32.847192 66.521484 35.84375 C 62.065101 38.840308 57.836292 42.147872 53.867188 45.732422 C 52.544153 46.927272 51.250625 48.153081 49.986328 49.408203 C 47.457734 51.918448 45.049388 54.547049 42.769531 57.283203 C 39.349747 61.387434 36.21858 65.73346 33.410156 70.289062 C 31.537874 73.326131 29.81001 76.455591 28.232422 79.667969 C 27.443628 81.274158 26.692143 82.902607 25.980469 84.548828 C 24.557121 87.84127 23.290534 91.211046 22.189453 94.648438 C 21.638913 96.367133 21.128636 98.102378 20.662109 99.853516 C 19.729056 103.35579 18.967978 106.92024 18.384766 110.53711 C 18.09316 112.34554 17.84523 114.16672 17.644531 116 C 17.443832 117.83328 17.289135 119.67955 17.181641 121.53516 C 17.074147 123.39076 17.013945 125.25546 17.001953 127.13086 C 16.989494 129.07984 17.027814 131.01554 17.115234 132.9375 C 17.202655 134.85946 17.33883 136.76736 17.523438 138.66016 C 18.631085 150.01691 21.4652 160.83098 25.732422 170.86523 C 29.999644 180.89949 35.701527 190.15541 42.546875 198.40039 C 43.687766 199.77455 44.859416 201.1206 46.0625 202.4375 C 47.265584 203.7544 48.499133 205.04136 49.761719 206.29883 C 51.024304 207.5563 52.315371 208.78459 53.634766 209.98047 C 54.95416 211.17635 56.302269 212.34052 57.675781 213.47266 C 60.422805 215.73693 63.275314 217.87088 66.222656 219.86719 C 70.64367 222.86165 75.278682 225.54574 80.089844 227.88867 C 86.504726 231.01258 93.233674 233.53039 100.19141 235.375 C 105.40971 236.75846 110.75645 237.76359 116.19531 238.35938 C 119.82122 238.75657 123.48853 238.97254 127.18555 238.99805 C 131.02697 239.02474 134.82569 238.84985 138.57422 238.48633 C 140.44848 238.30457 142.31089 238.07629 144.1582 237.80078 C 146.00551 237.52528 147.83838 237.20264 149.65625 236.83594 C 153.292 236.10253 156.86606 235.19039 160.36914 234.10742 C 167.37531 231.94149 174.09691 229.09647 180.45312 225.6543 C 182.04218 224.79375 183.60817 223.89489 185.15039 222.96094 C 189.77704 220.15907 194.18728 217.03401 198.34766 213.61719 C 199.73445 212.47825 201.09381 211.3057 202.42383 210.10352 C 203.75384 208.90133 205.05347 207.66914 206.32422 206.40625 C 208.86572 203.88047 211.28664 201.23577 213.57617 198.48242 C 218.15523 192.97572 222.21025 187.03327 225.66211 180.73828 C 226.52508 179.16453 227.35042 177.56979 228.13672 175.95312 C 228.92302 174.33646 229.67175 172.69805 230.37891 171.04102 C 231.79321 167.72694 233.04611 164.33532 234.12891 160.875 C 235.7531 155.68452 236.99208 150.34125 237.81445 144.87891 C 238.08858 143.05812 238.31799 141.22286 238.49805 139.37695 C 238.67811 137.53105 238.80907 135.67318 238.89258 133.80469 C 238.97609 131.9362 239.01161 130.05846 238.99609 128.16992 C 239.0296 124.35826 238.86359 120.58981 238.50781 116.875 C 238.32992 115.0176 238.10342 113.17344 237.83203 111.34375 C 237.56064 109.51406 237.2432 107.69809 236.88086 105.89844 C 236.51852 104.09879 236.11285 102.31611 235.66211 100.54883 C 235.21137 98.781548 234.71628 97.029454 234.17969 95.296875 C 233.10651 91.831717 231.86418 88.439325 230.46289 85.126953 C 229.76225 83.470767 229.02104 81.835197 228.24219 80.220703 C 227.46334 78.606209 226.64748 77.011879 225.79297 75.441406 C 224.93846 73.870934 224.04675 72.322948 223.11914 70.798828 C 221.26391 67.750588 219.26518 64.79807 217.13281 61.949219 C 212.86808 56.251517 208.0693 50.971889 202.81836 46.183594 C 201.50562 44.98652 200.16488 43.819957 198.79688 42.685547 C 196.06087 40.416726 193.21521 38.275671 190.27344 36.271484 C 187.33166 34.267298 184.29317 32.398645 181.16602 30.677734 C 178.03886 28.956824 174.8234 27.383837 171.53125 25.964844 C 168.2391 24.545851 164.87034 23.282028 161.43359 22.183594 C 159.71522 21.634377 157.97922 21.125738 156.22852 20.660156 C 149.22571 18.797828 141.97473 17.614554 134.55664 17.183594 C 132.70212 17.075854 130.837 17.014407 128.96289 17.001953 z M 89.472656 62.005859 C 91.022782 62.019817 92.622952 62.054687 94.320312 62.054688 L 94.320312 76.144531 C 92.923207 76.243935 91.642922 76.446331 90.371094 76.408203 C 81.791017 76.145395 81.347085 79.069244 80.720703 86.171875 C 80.329895 90.625998 80.870065 95.155898 80.566406 99.625 C 80.24913 104.07231 79.653921 108.49536 78.785156 112.86914 C 77.54737 119.20786 73.650505 123.92315 68.25 127.92383 C 78.733734 134.74595 79.926572 145.34708 80.607422 156.11133 C 80.973719 161.89583 80.805685 167.72065 81.392578 173.47656 C 81.85011 177.9443 83.58773 179.08453 88.201172 179.2207 C 90.103468 179.27653 92.007472 179.23438 94.201172 179.23438 L 94.201172 193.02148 C 80.566462 195.32684 69.334207 191.45512 66.578125 179.92969 C 65.634466 175.69207 65.054222 171.37999 64.841797 167.04297 C 64.549031 162.45131 65.056988 157.80809 64.707031 153.22461 C 63.7375 140.61254 62.102796 136.30736 50 135.71094 L 50 120.01562 C 50.867403 119.81273 51.747707 119.6619 52.632812 119.5625 C 59.26838 119.23569 62.064574 117.20218 63.548828 110.66602 C 64.224232 106.99351 64.62372 103.27539 64.742188 99.542969 C 65.267804 92.325955 65.082775 84.992486 66.285156 77.892578 C 68.022687 67.625354 74.397111 62.636422 84.925781 62.078125 C 86.423652 61.997785 87.92253 61.991902 89.472656 62.005859 z M 170.99805 62.09375 C 182.70671 62.434546 190.39705 68.466752 191.25781 81.300781 C 191.70173 87.933626 191.6357 94.597624 192.06055 101.23047 C 192.2471 104.83898 192.78736 108.42153 193.67383 111.92383 C 195.13221 117.37063 197.97096 119.28543 203.70508 119.54688 C 204.64465 119.59045 205.57902 119.7496 206.86719 119.89258 L 206.86719 135.58398 C 206.17 135.81275 205.45626 135.98404 204.73047 136.0957 C 197.04639 136.57366 193.54375 139.72714 192.76758 147.43164 C 192.27192 152.3501 192.31308 157.3236 191.97266 162.25977 C 191.82968 167.67933 191.33626 173.08388 190.49609 178.43945 C 188.53524 188.14293 182.47666 192.98324 172.4668 193.57422 C 169.24501 193.76486 166.00104 193.60352 162.52734 193.60352 L 162.52734 179.57812 C 164.39696 179.46238 166.04671 179.30316 167.70117 179.26367 C 173.68176 179.12069 175.79708 177.19169 176.08984 171.25195 C 176.41393 164.72668 176.5543 158.1946 176.8457 151.66797 C 177.26919 142.23411 179.85416 133.80578 188.64258 127.92188 C 183.61382 124.33652 179.57508 119.99399 178.5293 114.13867 C 177.26428 107.04149 176.85663 99.788385 176.17578 92.591797 C 175.83944 88.994183 175.85522 85.364421 175.50391 81.769531 C 175.12535 77.888684 172.45999 76.546133 168.92773 76.458984 C 166.90425 76.409963 164.87239 76.449219 162.28516 76.449219 L 162.28516 62.753906 C 165.38064 62.239949 168.29605 62.015105 170.99805 62.09375 z M 97.037109 118.78906 L 97.199219 118.78906 C 102.21164 118.87213 106.21002 123.00184 106.12695 128.01562 C 106.12695 128.18039 106.12086 128.34441 106.11133 128.50781 C 105.82946 133.40721 101.62987 137.14906 96.730469 136.86719 C 96.533022 136.87127 96.338072 136.86695 96.140625 136.85742 C 91.151353 136.60959 87.306858 132.36427 87.554688 127.375 C 87.802517 122.38573 92.047838 118.54123 97.037109 118.78906 z M 128.27344 118.78906 C 133.75564 118.74685 137.39719 122.29918 137.42578 127.71875 C 137.45574 133.28402 134.00344 136.84599 128.55664 136.86914 C 123.01724 136.89365 119.3698 133.38884 119.33984 128.00195 C 119.3235 127.72689 119.31996 127.4528 119.32812 127.17773 C 119.482 122.39136 123.48706 118.63519 128.27344 118.78906 z M 160.08008 118.78906 C 165.12518 118.81357 169.60047 123.07806 169.32812 127.95703 C 169.04353 133.24724 164.42208 137.63968 159.86719 136.87305 L 159.79883 136.87305 C 154.75373 136.87986 150.65779 132.7951 150.65234 127.75 C 150.82392 122.69128 155.02 118.70328 160.08008 118.78906 z "
       style="fill:#43a047;fill-opacity:1" />
  </g>
</svg>

<svg xmlns="http://www.w3.org/2000/svg" preserveAspectRatio="xMidYMid" viewBox="0 0 256 256"><path fill="#43a047" d="M128.963 17.002a112 112 0 0 0-11.422.51 110 110 0 0 0-11.09 1.642 110 110 0 0 0-25.906 8.668 111.6 111.6 0 0 0-14.024 8.022 113 113 0 0 0-16.535 13.564A113.3 113.3 0 0 0 33.41 70.29a112 112 0 0 0-7.43 14.26 110 110 0 0 0-5.318 15.305 108.7 108.7 0 0 0-3.66 27.277 112 112 0 0 0 .521 11.53 109.3 109.3 0 0 0 8.21 32.204A111.3 111.3 0 0 0 42.546 198.4a113 113 0 0 0 15.129 15.073c2.747 2.264 5.6 4.398 8.547 6.394a113 113 0 0 0 13.867 8.022 110.7 110.7 0 0 0 20.101 7.486 108.6 108.6 0 0 0 16.004 2.984c3.626.398 7.294.614 10.99.639a110 110 0 0 0 22.471-2.162c3.636-.733 7.21-1.646 10.713-2.729a111 111 0 0 0 24.781-11.146 113 113 0 0 0 21.174-16.555 113 113 0 0 0 7.252-7.924 112 112 0 0 0 12.086-17.744 110 110 0 0 0 4.717-9.697 108 108 0 0 0 3.75-10.166 106.8 106.8 0 0 0 4.37-21.498 107 107 0 0 0 .498-11.207 107.6 107.6 0 0 0-2.115-22.271 107.5 107.5 0 0 0-6.42-20.772 110 110 0 0 0-7.344-14.328c-1.854-3.048-3.853-6-5.985-8.85a113 113 0 0 0-18.336-19.263 113 113 0 0 0-17.631-12.008 112 112 0 0 0-9.635-4.713 110.5 110.5 0 0 0-15.302-5.305 109 109 0 0 0-27.266-3.658zm-39.49 45.004c1.55.014 3.15.049 4.847.049v14.09c-1.397.099-2.677.301-3.949.263-8.58-.263-9.024 2.661-9.65 9.764-.391 4.454.15 8.984-.155 13.453-.317 4.447-.912 8.87-1.78 13.244-1.239 6.339-5.135 11.054-10.536 15.055 10.484 6.822 11.677 17.423 12.357 28.187.367 5.785.199 11.61.786 17.366.457 4.467 2.195 5.608 6.808 5.744 1.902.056 3.806.013 6 .013v13.787c-13.635 2.306-24.867-1.566-27.623-13.091a76.5 76.5 0 0 1-1.736-12.887c-.293-4.592.215-9.235-.135-13.818-.97-12.612-2.604-16.918-14.707-17.514v-15.695a23 23 0 0 1 2.633-.454c6.635-.326 9.432-2.36 10.916-8.896a74.6 74.6 0 0 0 1.193-11.123c.526-7.217.34-14.55 1.543-21.65 1.738-10.268 8.112-15.257 18.64-15.815 1.499-.08 2.998-.086 4.548-.072m81.525.088c11.709.34 19.4 6.373 20.26 19.207.444 6.633.378 13.297.803 19.93a55 55 0 0 0 1.613 10.693c1.458 5.447 4.297 7.361 10.031 7.623.94.043 1.874.203 3.162.346v15.691q-1.046.344-2.137.512c-7.684.478-11.186 3.631-11.962 11.336-.496 4.918-.455 9.892-.795 14.828a126 126 0 0 1-1.477 16.18c-1.96 9.703-8.02 14.543-18.03 15.134-3.221.19-6.465.03-9.939.03v-14.026c1.87-.116 3.52-.275 5.174-.314 5.98-.143 8.096-2.072 8.389-8.012.324-6.525.464-13.057.756-19.584.423-9.434 3.008-17.862 11.797-23.746-5.03-3.585-9.068-7.928-10.114-13.783-1.265-7.098-1.672-14.35-2.353-21.547-.337-3.598-.32-7.228-.672-10.822-.379-3.881-3.044-5.224-6.576-5.311-2.024-.049-4.056-.01-6.643-.01V62.754c3.096-.514 6.011-.739 8.713-.66m-73.96 56.695h.161a9.08 9.08 0 0 1 8.928 9.227 8.884 8.884 0 0 1-9.396 8.852 9.045 9.045 0 1 1 .307-18.078zm31.235 0c5.483-.042 9.124 3.51 9.153 8.93.03 5.565-3.423 9.127-8.87 9.15-5.539.025-9.186-3.48-9.216-8.867a8.67 8.67 0 0 1 8.934-9.213zm31.807 0c5.045.025 9.52 4.29 9.248 9.168-.284 5.29-4.906 9.683-9.46 8.916h-.07a9.134 9.134 0 0 1-9.146-9.123 9.277 9.277 0 0 1 9.428-8.96z"/></svg>
